X:1
T:Title
%%score { 1 | ( 2 3 ) }
L:1/8
Q:1/4=100
M:4/4
K:F
V:1 treble nm="Grand Piano"
V:2 bass 
V:3 bass 
V:1
 c2 A2 G2 F>F | [Fd]4 c4 |[M:3/4] c2 d>c A2 |[M:1/4] F2 |[M:4/4] [EG]6 z2 | c2 A2 G2 F>F | %6
w: Howard~E.~Smith * * * *||||||
 [Fd]4 c4 |[M:3/4] c2 d>c A2 |[M:1/4] [EG]2 |[M:4/4] F6 z2 | [Fd]2 [DB]2 [DB]2 [Fd]>d | c4 A4 | %12
w: ||||||
 [Ec]2 [EG]2 [EG]2 [Ec]>[GB] | [FA]6 z2 | [Fd]2 [DB]2 [DB]2 [Fd]>d | c4 A4 | c2 d>c A2 [EG]>[EG] | %17
w: |||||
 [CF]6 z2 |] %18
w: |
V:2
 [F,A,F]2 [F,CF]2 [F,B,F]2 [F,A,]2 | [B,,B,]4 [F,A,F]4 |[M:3/4] [F,A,F]2 [F,B,F]>[F,A,F] [F,CF]2 | %3
[M:1/4] [F,A,]2 |[M:4/4] [C,C]6 z2 | [F,A,F]2 [F,CF]2 [F,B,F]2 [F,A,]2 | [B,,B,]4 [F,A,F]4 | %7
[M:3/4] [F,A,F]2 [F,B,F]>[F,A,F] [F,CF]2 |[M:1/4] [C,B,]2 |[M:4/4] [F,A,]6 z2 | %10
 [B,,B,]2 [B,,F,]2 [B,,F,]2 z z/[K:treble] F/ | [F,A,F]4[K:bass] [F,CF]4 | %12
 [C,C]2 [C,C]2 [C,C]2 [C,G,]>[C,C] | [F,C]6 z2 | [B,,B,]2 [B,,F,]2 [B,,F,]2 z z/[K:treble] F/ | %15
 [F,A,F]4 [F,CF]4 | [F,A,F]2 [F,B,F]>[K:bass][F,A,F] [F,CF]2 [C,B,]>[C,B,] | [F,A,]6 z2 |] %18
V:3
 x8 | x8 |[M:3/4] x6 |[M:1/4] x2 |[M:4/4] x8 | x8 | x8 |[M:3/4] x6 |[M:1/4] x2 |[M:4/4] x8 | %10
 z4 z2 [B,,B,]2[K:treble] | x4[K:bass] x4 | x8 | x8 | z4 z2 [B,,B,]2[K:treble] | x8 | %16
 x7/2[K:bass] x9/2 | x8 |] %18

